X:1
T:Sechs kleine Präludien
T:Prelude in C major, BWV 933
T:Sechs kleine Präludien
T:Johann Sebastian Bach
T:1. Prelude in C major, BWV 933
T:OpenScore (CC0)
C:Johann Sebastian Bach
Z:OpenScore (CC0)
%%score { ( 1 2 4 ) | 3 }
L:1/8
Q:1/4=80
M:4/4
K:C
V:1 treble nm="Harpsichord" snm="Hch."
V:2 treble 
V:4 treble 
V:3 bass 
V:1
"^[]" E2 z F G2 z c | MFF dF FE z2 | MD2 z E F2 z F | EG G/F/G/A/{E} !turn!D2 z/ G/B/d/ | %4
 e/d/c/B/ A/G/^F/E/ F/D/F/A/ F/D/F/A/ | d/c/B/A/ G/^F/E/D/ E/C/E/G/ E/C/E/G/ | %6
 c/B/A/G/ ^F/G/A/F/ D/E/F/G/ A/B/c/A/ | dG B/A/G/^F/ G/D/B, z2 :: B2 x c d2 z e | =ff fe dc z2 | %10
 g2 z _B MA2 z a | =bc' fe{f} ed z/ G/B/d/ | g/f/e/d/ c/_B/A/G/ A/F/A/c/ A/F/A/c/ | %13
 f/e/d/c/ =B/A/G/F/ G/F/G/d/ G/F/G/d/ | e/d/c/B/ A/G/F/E/ D/F/A/c/ B/G/B/d/ | %15
 gc e/d/c/B/ c/G/E/C/ z2 :| %16
V:2
 M[G,C]2 x D M[CE]2 x E | DD z D DC x2 | B,2 x C D2 x D | CE CC{C} PB,2 x2 | x8 | x8 | x8 | x8 :: %8
 M[DG]2 x A M[GB]2 x c | dd dc BA x2 | G2 x G F2 x c | fe dc cB x2 | x8 | x8 | x8 | x8 :| %16
V:3
 z/ C,,/E,,/G,,/ C,2 z/ C,,/E,,/G,,/ C,2 | %1
 z/ C,/D,/C,/ B,,/D,/G,,/B,,/ C,/C,,/E,,/G,,/ C,/D,/E,/F,/ | %2
 G,/G,,/B,,/D,/ G,2 z/ G,,/B,,/D,/ G,2 | z/ G,,/C,/E,/ E,,F,, G,,/G,/D,/B,,/ G,,G, | %4
 C,G,C,A, D,A,C,A, | B,,A,B,,G, C,G,B,,G, | A,,G,A,,G, ^F,A,F,D, | B,,E,C,D, G, z/ G,/ G,,2 :: %8
 z/ G,,/B,,/D,/ G,2 z/ G,,/B,,/D,/ G,2 | z/ A,/B,/A,/ ^G,/B,/E,/G,/ A,/A,,/C,/E,/ A,/B,/C/D/ | %10
 E/E,/G,/C/ E2 z/ F,/A,/C/ F/E/F/E/ | D/C/D/C/ B,/G,/C/E/ G/^F/G/D/ B,/D/G,/B,/ | E,CE,C F,CE,C | %13
 D,=B,C,A, B,,F,E,D, | C,E,F,A, F,D,G,F, | E,A,F,G, C,2 C,,2 :| %16
V:4
 x8 | x8 | x8 | x8 | x8 | x8 | x8 | x8 :: !courtesy!x2 x2 x4 | x8 | c2 x6 | x8 | x8 | x8 | x8 | %15
 x8 :| %16

